X:525
T: WENN ZU MEIM SCHAETZEL KOMMST
N: E0510B
O: Europa, Mitteleuropa, Deutschland, Berlin
R: Liebes - Lied; Studenten - Lied
M: 3/8
L: 1/16
K: G
 | B3AB2 | c2c2D2 |
c3ce2 | d4B2 |
B3AB2 | c2c2D2 |
c3ce2 | d4B2 |
A3BA2 | A3BA2 |
A3BAB | c6 | B6 | A6 |
B2B2B2 | B2d4 |
d2cBcA | G2g2d2 |
B2B2B2 | B2d4 |
d2cBcA | G4z2 |
B2B2B2 | B2d4 |
d2cBcA | G2g2d2 |
B2B2B2 | B2d4 |
d2cBcA | G4z2

@@@ Tune index: 4175
